X:1
T:Title
%%score { ( 1 4 ) | ( 2 3 ) }
L:1/8
M:4/4
K:G
V:1 treble nm="Grand Piano"
V:4 treble 
V:2 treble 
V:3 treble 
V:1
 z4 z2[Q:1/4=100] D2 | G2 GA B3 A | [EG]2 [Ec]2 B4 | z4 z2 B2 | [GB]4 [FA]2 D2 | G2 GA B3 A | %6
 [EG]2 [Ec]2 B4 | d3 B G2 .[EGc]2 |[M:9/8] .A6 z .[DB]2 |[M:4/4] d2 d2 d3 B | %10
 [CEG]2 [G,CE]2 [G,B,D]3 [G,B,D] | [G,CE]2 [G,CE][DF] [G,DG]2 [G,G]A | B2 .[Ec]2 [DFA]2 D2 | %13
 G2 GA B3 A | [EG]2 [Ec]2 B4 | d3 B G2 .[EGc]2 |[M:3/4] [EG]2 z2 z2 |] %17
V:2
 z4 z2 [G,B,]2 | [G,B,D]2 [G,D]-[G,CD] [G,DG]3[K:bass] [G,B,D] | [C,C]2 [C,G,]2[K:treble] [G,D]4 | %3
 [G,B,G]3 [G,DG] [G,B,]2 .[G,B,G]2 | [D,D]4 [D,D]2 [D,C]2 | %5
 [G,B,D]2 [G,D]-[G,CD][K:treble] [G,DG]3 [G,B,D] | [C,C]2 [C,G,]2[K:treble] [G,D]4 | %7
 [G,B,G]3 [G,DG][K:bass] [G,B,]2 z[K:treble] B |[M:9/8][K:bass] z2 D C G,,2- G,, z[K:treble] C | %9
[M:4/4] [G,B,G]2 [G,B,G]2 [G,B,G]3 [G,DG] | C,2 C,2 G,,3 G,, | C,2 z A, B,,2 B,,[D,F,] | %12
 [G,D]2 z[K:treble] B[K:bass] D,2 [D,C]2 | [G,B,D]2 [G,D]-[G,CD][K:treble] [G,DG]3 [G,B,D] | %14
 [C,C]2 [C,G,]2[K:treble] [G,D]4 | [G,B,G]3 [G,DG][K:bass] [G,B,]2 z[K:treble] B | %16
[M:3/4][K:bass] z2 DC G,,2 |] %17
V:3
 x8 | z2 .B,2 z4[K:bass] | x4[K:treble] x4 | x8 | x8 | z2 .B,2[K:treble] z4 | x4[K:treble] x4 | %7
 z4[K:bass] z2 C,2[K:treble] |[M:9/8][K:bass] .D,6 z G,2[K:treble] |[M:4/4] x8 | x8 | z2 C,2 z4 | %12
 z2 [C,G,]2[K:treble][K:bass] z4 | z2 .B,2[K:treble] z4 | x4[K:treble] x4 | %15
 z4[K:bass] z2 C,2[K:treble] |[M:3/4][K:bass] D,4 z2 |] %17
V:4
 x8 | x8 | x8 | d3 B G2 z ^C | x8 | x8 | x8 | x8 |[M:9/8] [EG]2 F- F [B,DG]2- [B,DG]G-[Gc] | %9
[M:4/4] x8 | x8 | z4 z2 D2 | x8 | x8 | x8 | x8 |[M:3/4] A2- [FA]2 [B,DG]2 |] %17

